dist/images/services-icons/10.svg

<svg width="76" height="75" viewBox="0 0 76 75" fill="none" xmlns="http://www.w3.org/2000/svg">
<path d="M36.8574 74.9999C16.5014 74.9999 0 58.4972 0 38.1412C0 28.133 3.9891 19.0557 10.4628 12.4145C10.5472 12.3277 10.6318 12.2421 10.7172 12.1558L10.7191 12.1582C4.24569 18.7995 0.256294 27.8761 0.256294 37.8844C0.256294 58.2409 16.7578 74.7436 37.1136 74.7436C47.1217 74.7436 56.1988 70.7539 62.8399 64.2799L62.8417 64.2815C62.7561 64.3672 62.6699 64.4516 62.5837 64.536C55.942 71.011 46.8654 74.9999 36.8574 74.9999Z" fill="#969A9D"/>
<path d="M37.1151 74.7435C16.7593 74.7435 0.257812 58.2409 0.257812 37.8843C0.257812 27.8761 4.24721 18.7994 10.7206 12.1582C10.8053 12.0714 10.8899 11.9852 10.975 11.8995L10.9772 11.9013C4.50375 18.5432 0.514347 27.6199 0.514347 37.6281C0.514347 57.9846 17.0158 74.4875 37.372 74.4875C47.38 74.4875 56.4566 70.4978 63.0977 64.0229L63.1001 64.0254C63.0139 64.1103 62.9282 64.1955 62.8414 64.2799C56.2003 70.7539 47.1232 74.7435 37.1151 74.7435Z" fill="#96999C"/>
<path d="M37.3771 74.4874C17.021 74.4874 0.519531 57.9845 0.519531 37.628C0.519531 27.6198 4.50893 18.5431 10.9824 11.9013C11.067 11.8151 11.1517 11.7289 11.2368 11.6433L11.2389 11.6451C4.76546 18.2863 0.775821 27.3636 0.775821 37.3718C0.775821 57.7277 17.2775 74.2304 37.6334 74.2304C47.6414 74.2304 56.718 70.2414 63.3597 63.7668L63.3615 63.7684C63.2759 63.8542 63.1897 63.9384 63.1029 64.0228C56.4617 70.4977 47.3852 74.4874 37.3771 74.4874Z" fill="#96989A"/>
<path d="M37.6232 74.2304C17.2673 74.2304 0.765625 57.7277 0.765625 37.3718C0.765625 27.3636 4.75526 18.2863 11.2287 11.6451C11.3131 11.5582 11.3978 11.4726 11.4831 11.3864L11.485 11.3888C5.01156 18.0301 1.02216 27.1067 1.02216 37.115C1.02216 57.4714 17.5236 73.9744 37.8794 73.9744C47.8875 73.9744 56.9646 69.9846 63.6057 63.5105L63.6075 63.5123C63.5219 63.5972 63.4357 63.6823 63.3495 63.7667C56.7078 70.2414 47.6312 74.2304 37.6232 74.2304Z" fill="#95979A"/>
<path d="M37.8807 73.9747C17.5249 73.9747 1.02344 57.4717 1.02344 37.1153C1.02344 27.1071 5.01283 18.0304 11.4863 11.3891C11.5707 11.3023 11.6556 11.2161 11.7409 11.1305L11.7428 11.1323C10.1952 12.7206 8.7885 14.4484 7.54529 16.2942C7.5441 16.296 7.54272 16.2984 7.54128 16.3002C7.5329 16.3127 7.52446 16.3253 7.51608 16.3379C7.51351 16.3421 7.51135 16.3445 7.50883 16.3487C7.50135 16.36 7.49405 16.3708 7.48638 16.3822C7.48381 16.3858 7.47956 16.3924 7.47698 16.396C7.46998 16.4067 7.46345 16.4163 7.45645 16.4271C7.45244 16.4331 7.44915 16.4379 7.44544 16.4438C7.43957 16.4522 7.43304 16.4618 7.42741 16.4708C7.42227 16.4786 7.41783 16.4852 7.41269 16.4923C7.40802 16.4995 7.40287 16.5073 7.3982 16.5145C7.39233 16.5235 7.38718 16.5313 7.38138 16.5396C7.37689 16.5468 7.37293 16.5528 7.3685 16.5594C7.36216 16.569 7.35563 16.5786 7.34929 16.5881C7.34629 16.5929 7.34276 16.5983 7.33971 16.6031C7.33198 16.6145 7.32522 16.6246 7.31774 16.6366C7.31516 16.6402 7.31331 16.6432 7.31073 16.6468C7.30253 16.6594 7.29367 16.6731 7.28547 16.6857C7.28409 16.6875 7.28361 16.6881 7.28242 16.6905C7.27284 16.7049 7.26374 16.7186 7.25416 16.7336C7.25392 16.7342 7.25368 16.7342 7.2532 16.7348C3.47502 22.5211 1.27979 29.4329 1.27979 36.8591C1.27979 48.828 6.98404 59.4635 15.8225 66.1971C22.0164 70.916 29.7501 73.7177 38.1375 73.7177C42.1924 73.7177 46.0951 73.0628 49.7441 71.8535L49.7447 71.8528C49.7614 71.8475 49.7788 71.8416 49.7955 71.836C49.7967 71.836 49.7979 71.8355 49.7991 71.8348C49.8147 71.8295 49.8291 71.8248 49.8446 71.8199C49.8482 71.8187 49.8506 71.8175 49.8542 71.8163C49.868 71.8122 49.8817 71.8075 49.8955 71.8026C49.9003 71.8014 49.9039 71.8002 49.9081 71.7983C49.9201 71.7941 49.9314 71.7906 49.944 71.7864C49.9506 71.7841 49.9566 71.7822 49.9632 71.7799C49.9733 71.7761 49.9835 71.7726 49.9937 71.7696C50.0015 71.7668 50.0093 71.7642 50.017 71.7611C50.0254 71.7588 50.0344 71.7558 50.0428 71.7529C50.0524 71.7492 50.0619 71.7462 50.0721 71.7427C50.0787 71.7403 50.0847 71.7385 50.0913 71.7361C50.1027 71.7326 50.1146 71.7284 50.1254 71.7242C50.1308 71.7228 50.1362 71.7204 50.141 71.7193C50.1547 71.7146 50.1673 71.7097 50.1811 71.7055C50.1829 71.7043 50.1853 71.7039 50.1871 71.7031C50.2026 71.6978 50.2188 71.6924 50.2344 71.687C50.2356 71.6863 50.2368 71.6858 50.238 71.6858C51.1156 71.3804 51.9801 71.0427 52.826 70.6746C52.823 70.6765 52.8194 70.6776 52.8165 70.6793C56.9473 68.884 60.6849 66.354 63.8644 63.2544L63.8656 63.2563C63.78 63.3412 63.6938 63.4259 63.607 63.5108C56.9659 69.985 47.8888 73.9747 37.8807 73.9747Z" fill="#939699"/>
<path d="M38.1421 73.7172C42.1976 73.7172 46.0991 73.0624 49.7487 71.8531C46.0997 73.0624 42.197 73.7172 38.1421 73.7172ZM49.8588 71.8159C49.872 71.8117 49.887 71.8071 49.9001 71.8021C49.8864 71.8071 49.8726 71.8117 49.8588 71.8159ZM49.9127 71.7979C49.9241 71.7944 49.9373 71.7895 49.9486 71.786C49.9361 71.7902 49.9247 71.7937 49.9127 71.7979ZM50.0217 71.7607C50.0306 71.7579 50.0384 71.7553 50.0474 71.7525C50.039 71.7553 50.03 71.7584 50.0217 71.7607ZM50.13 71.7238C50.1348 71.7223 50.1414 71.72 50.1456 71.7189C50.1408 71.72 50.1354 71.7223 50.13 71.7238ZM50.239 71.6866C50.2414 71.6854 50.2402 71.6859 50.2426 71.6854C50.2414 71.6854 50.2402 71.6859 50.239 71.6866ZM7.25781 16.7344C7.25829 16.7338 7.25853 16.7338 7.25877 16.7332L7.25781 16.7344ZM7.31535 16.6464C7.31792 16.6428 7.31977 16.6398 7.32235 16.6362C7.32049 16.6392 7.3172 16.644 7.31535 16.6464ZM7.37312 16.559C7.37755 16.5524 7.3815 16.5464 7.38599 16.5392C7.3815 16.5464 7.37779 16.5524 7.37312 16.559ZM7.40281 16.5141C7.40748 16.5069 7.41263 16.4991 7.4173 16.4919C7.41287 16.4991 7.40724 16.5075 7.40281 16.5141ZM7.49099 16.3818C7.49866 16.3704 7.50596 16.3596 7.51344 16.3482C7.50572 16.3596 7.49866 16.3704 7.49099 16.3818ZM7.5499 16.2938C8.79312 14.448 10.1998 12.7202 11.7474 11.1319C11.8318 11.0457 11.9165 10.9595 12.0018 10.8739C10.3531 12.5322 8.86089 14.3474 7.5499 16.2938Z" fill="#939599"/>
<mask id="mask0_801_4937" style="mask-type:luminance" maskUnits="userSpaceOnUse" x="1" y="0" width="74" height="74">
<path d="M38.027 73.7178C29.6641 73.7178 21.9531 70.934 15.7774 66.2454C6.96486 59.5549 1.27734 48.9874 1.27734 37.0951C1.27734 29.7165 3.46613 22.8489 7.23324 17.0996L7.23419 17.0984C7.24374 17.0836 7.25281 17.0699 7.26236 17.0556C7.26356 17.0532 7.26403 17.0526 7.26541 17.0509C7.27358 17.0384 7.28242 17.0247 7.2906 17.0122C7.29245 17.0098 7.29573 17.0051 7.29758 17.0021C7.30504 16.9902 7.31179 16.9801 7.31949 16.9688C7.32253 16.964 7.32606 16.9587 7.32904 16.9539C7.33537 16.9444 7.34187 16.9349 7.3482 16.9253C7.35286 16.9188 7.35656 16.9128 7.36104 16.9057C7.36683 16.8974 7.37196 16.8897 7.37781 16.8807C7.38223 16.8742 7.38784 16.8659 7.39225 16.8587C7.39739 16.8516 7.4018 16.845 7.40694 16.8373C7.41255 16.8284 7.41906 16.8189 7.42491 16.8105C7.42861 16.8046 7.43189 16.7998 7.43589 16.7939C7.44287 16.7832 7.44938 16.7737 7.45636 16.763C7.45893 16.7594 7.46317 16.7528 7.46573 16.7493C7.47337 16.738 7.48042 16.7273 7.48812 16.716C7.49063 16.7118 7.49278 16.7094 7.49534 16.7052C7.5037 16.6928 7.51211 16.6803 7.52047 16.6678C7.5219 16.666 7.52328 16.6636 7.52447 16.6618C8.83161 14.728 10.3195 12.9244 11.9636 11.2766C12.959 10.2784 14.0108 9.33856 15.1156 8.45937C17.6971 7.24229 20.1125 5.73435 22.3214 3.97775C26.7989 2.0415 31.7402 0.967773 36.9328 0.967773C57.2293 0.967773 73.6822 17.3649 73.6822 37.5912C73.6822 52.205 65.0943 64.8182 52.6724 70.6942C51.829 71.06 50.967 71.3955 50.0919 71.699C50.0895 71.6994 50.0907 71.699 50.0883 71.7001C50.0728 71.7055 50.0567 71.7109 50.0412 71.7161C50.0394 71.7169 50.037 71.7173 50.0352 71.7185C50.0215 71.7227 50.009 71.7276 49.9952 71.7322C49.991 71.7333 49.9845 71.7357 49.9797 71.7371C49.969 71.7413 49.957 71.7455 49.9457 71.7489C49.9391 71.7512 49.9331 71.7531 49.9266 71.7555C49.9164 71.7589 49.9069 71.762 49.8973 71.7656C49.8884 71.7684 49.8806 71.771 49.8717 71.7738C49.8639 71.7768 49.8561 71.7794 49.8484 71.7822C49.8382 71.7852 49.8281 71.7887 49.8179 71.7924C49.8114 71.7947 49.8054 71.7966 49.7988 71.7989C49.7875 71.8024 49.7744 71.8073 49.763 71.8107C49.7588 71.8126 49.7553 71.8138 49.7505 71.815C49.7373 71.8198 49.7224 71.8245 49.7093 71.8286C49.7057 71.8298 49.7033 71.831 49.6997 71.8321C49.6842 71.837 49.6699 71.8417 49.6544 71.847C49.6532 71.8477 49.652 71.8481 49.6508 71.8481C49.6341 71.8537 49.6168 71.8596 49.6001 71.8649L49.5995 71.8656C45.9606 73.0671 42.0705 73.7178 38.027 73.7178ZM74.1818 43.6932C74.1824 43.6926 74.1824 43.6902 74.183 43.689C74.1824 43.6902 74.1824 43.692 74.1818 43.6932ZM74.2015 43.5843C74.2027 43.5796 74.2033 43.5742 74.2045 43.5695C74.2033 43.5748 74.2027 43.5784 74.2015 43.5843ZM74.2111 43.5326C74.2123 43.5272 74.2129 43.5219 74.2141 43.5165C74.2129 43.5213 74.2117 43.5278 74.2111 43.5326ZM74.2308 43.4196C74.2326 43.4118 74.2338 43.4041 74.235 43.3964C74.2338 43.4047 74.2326 43.4112 74.2308 43.4196ZM74.2397 43.3696C74.2409 43.3607 74.2427 43.3535 74.2439 43.3452C74.2427 43.353 74.2409 43.3613 74.2397 43.3696ZM74.2493 43.3131C74.2517 43.3 74.2541 43.2851 74.2564 43.272C74.2541 43.2857 74.2517 43.2994 74.2493 43.3131ZM74.2672 43.2096C74.6021 41.2216 74.777 39.1789 74.777 37.0957C74.777 27.2074 70.8433 18.2328 64.4514 11.6436C70.8433 18.2328 74.777 27.2068 74.777 37.0951C74.777 39.1789 74.6027 41.221 74.2672 43.2096ZM22.3232 3.97596C22.325 3.97477 22.325 3.97477 22.3268 3.97358C24.5043 2.94686 26.8001 2.12656 29.1878 1.53884C26.7989 2.12715 24.5026 2.94746 22.3232 3.97596ZM29.2188 1.5311C29.2242 1.52991 29.2308 1.52814 29.2367 1.52695C29.2308 1.52814 29.2248 1.52991 29.2188 1.5311Z" fill="white"/>
</mask>
<g mask="url(#mask0_801_4937)">
<path d="M38.027 73.7178C29.6641 73.7178 21.9531 70.934 15.7774 66.2454C6.96486 59.5549 1.27734 48.9874 1.27734 37.0951C1.27734 29.7165 3.46613 22.8489 7.23324 17.0996L7.23419 17.0984C7.24374 17.0836 7.25281 17.0699 7.26236 17.0556C7.26356 17.0532 7.26403 17.0526 7.26541 17.0509C7.27358 17.0384 7.28242 17.0247 7.2906 17.0122C7.29245 17.0098 7.29573 17.0051 7.29758 17.0021C7.30504 16.9902 7.31179 16.9801 7.31949 16.9688C7.32253 16.964 7.32606 16.9587 7.32904 16.9539C7.33537 16.9444 7.34187 16.9349 7.3482 16.9253C7.35286 16.9188 7.35656 16.9128 7.36104 16.9057C7.36683 16.8974 7.37196 16.8897 7.37781 16.8807C7.38223 16.8742 7.38783 16.8659 7.39225 16.8587C7.39739 16.8516 7.4018 16.845 7.40694 16.8373C7.41255 16.8284 7.41906 16.8189 7.42491 16.8105C7.42861 16.8046 7.43189 16.7998 7.43589 16.7939C7.44287 16.7832 7.44938 16.7737 7.45636 16.7629C7.45893 16.7594 7.46317 16.7528 7.46573 16.7493C7.47337 16.738 7.48042 16.7273 7.48812 16.716C7.49063 16.7118 7.49278 16.7094 7.49534 16.7052C7.5037 16.6928 7.51211 16.6803 7.52047 16.6678C7.5219 16.666 7.52328 16.6636 7.52447 16.6618C8.83161 14.7279 10.3195 12.9244 11.9636 11.2766C12.959 10.2784 14.0108 9.33856 15.1156 8.45937C17.6971 7.24229 20.1125 5.73435 22.3214 3.97775C26.7989 2.0415 31.7402 0.967773 36.9328 0.967773C57.2293 0.967773 73.6822 17.3649 73.6822 37.5912C73.6822 52.205 65.0943 64.8182 52.6724 70.6942C51.829 71.06 50.967 71.3955 50.0919 71.699C50.0895 71.6994 50.0907 71.699 50.0883 71.7001C50.0728 71.7055 50.0567 71.7109 50.0412 71.7161C50.0394 71.7169 50.037 71.7173 50.0352 71.7185C50.0215 71.7227 50.0089 71.7276 49.9952 71.7322C49.991 71.7333 49.9845 71.7357 49.9797 71.7371C49.969 71.7413 49.957 71.7455 49.9457 71.7489C49.9391 71.7512 49.9331 71.7531 49.9266 71.7555C49.9164 71.7589 49.9069 71.762 49.8973 71.7656C49.8884 71.7684 49.8806 71.771 49.8717 71.7738C49.8639 71.7768 49.8561 71.7794 49.8484 71.7822C49.8382 71.7852 49.8281 71.7887 49.8179 71.7924C49.8114 71.7947 49.8054 71.7966 49.7988 71.7989C49.7875 71.8024 49.7744 71.8073 49.763 71.8107C49.7588 71.8126 49.7553 71.8138 49.7505 71.815C49.7373 71.8198 49.7224 71.8245 49.7093 71.8286C49.7057 71.8298 49.7033 71.831 49.6997 71.8321C49.6842 71.837 49.6699 71.8417 49.6544 71.847C49.6532 71.8477 49.652 71.8481 49.6508 71.8481C49.6341 71.8537 49.6168 71.8596 49.6001 71.8649L49.5995 71.8656C45.9606 73.0671 42.0705 73.7178 38.027 73.7178ZM74.1818 43.6932C74.1824 43.6926 74.1824 43.6902 74.183 43.689C74.1824 43.6902 74.1824 43.692 74.1818 43.6932ZM74.2015 43.5843C74.2027 43.5796 74.2033 43.5742 74.2045 43.5695C74.2033 43.5748 74.2027 43.5784 74.2015 43.5843ZM74.2111 43.5326C74.2123 43.5272 74.2129 43.5219 74.2141 43.5165C74.2129 43.5213 74.2117 43.5278 74.2111 43.5326ZM74.2308 43.4196C74.2326 43.4118 74.2338 43.4041 74.235 43.3964C74.2338 43.4047 74.2326 43.4112 74.2308 43.4196ZM74.2397 43.3696C74.2409 43.3607 74.2427 43.3535 74.2439 43.3452C74.2427 43.3529 74.2409 43.3613 74.2397 43.3696ZM74.2493 43.3131C74.2517 43.3 74.2541 43.2851 74.2564 43.272C74.2541 43.2857 74.2517 43.2994 74.2493 43.3131ZM74.2672 43.2096C74.6021 41.2216 74.777 39.1789 74.777 37.0957C74.777 27.2074 70.8432 18.2328 64.4514 11.6436C70.8432 18.2328 74.777 27.2068 74.777 37.0951C74.777 39.1789 74.6027 41.221 74.2672 43.2096ZM22.3232 3.97595C22.325 3.97476 22.325 3.97476 22.3268 3.97357C24.5043 2.94685 26.8001 2.12655 29.1878 1.53883C26.7989 2.12714 24.5026 2.94745 22.3232 3.97595ZM29.2188 1.5311C29.2242 1.52991 29.2308 1.52813 29.2367 1.52694C29.2308 1.52813 29.2248 1.52991 29.2188 1.5311Z" fill="url(#paint0_linear_801_4937)"/>
</g>
<path d="M75.004 36.8594C75.004 51.999 65.8772 65.0068 52.8249 70.6791C65.2881 64.767 73.9061 52.0696 73.9061 37.3581C73.9061 17.0016 57.4047 0.498787 37.0486 0.498787C31.8335 0.498787 26.8717 1.58241 22.375 3.53652C27.1566 1.2681 32.5028 7.62939e-05 38.1465 7.62939e-05C58.5021 7.62939e-05 75.004 16.5029 75.004 36.8594Z" fill="white"/>
<path d="M18 19V23.2942L21.8735 27.1676C28.0721 33.681 27.2647 39.9751 29.7375 42.0381C30.5133 42.6817 31.4907 43.0322 32.4988 43.0282C33.6042 43.0317 34.6704 42.6184 35.4847 41.8708C36.2989 41.1231 36.8015 40.096 36.8921 38.9943C36.9134 38.7089 37.0364 38.4406 37.2388 38.2382C37.4412 38.0359 37.7095 37.9128 37.9949 37.8916C39.1072 37.8019 40.1432 37.2908 40.8911 36.4627C42.3413 34.8657 42.4488 32.3708 41.0387 30.738C38.5805 27.8905 33.8841 29.3979 26.1678 22.8742L22.2935 19H18ZM43.4501 33.1655C43.4586 33.3285 43.4612 33.4915 43.4561 33.6563C43.4134 35.0481 42.8769 36.3793 41.9427 37.4119C40.9949 38.4625 39.6955 39.1302 38.2894 39.2888C38.1283 40.7104 37.4486 42.0227 36.3803 42.9746C35.3121 43.9264 33.9304 44.4509 32.4996 44.4476C32.3844 44.4476 32.2692 44.4425 32.1582 44.4357C32.1855 44.4698 32.2137 44.5048 32.2435 44.5381C34.7018 47.3855 39.3982 45.8782 47.1145 52.4018L54.3374 59.6288H58.63V55.3343L51.4028 48.1059C45.2033 41.5908 46.0117 35.3027 43.5397 33.2372C43.5107 33.2124 43.48 33.1894 43.4501 33.1655Z" fill="#202020"/>
<defs>
<linearGradient id="paint0_linear_801_4937" x1="-4.49069" y1="90.8889" x2="63.7394" y2="10.9654" gradientUnits="userSpaceOnUse">
<stop stop-color="white"/>
<stop offset="1" stop-color="#EFEFEF"/>
</linearGradient>
</defs>
</svg>

<svg width="76" height="75" fill="none" xmlns="http://www.w3.org/2000/svg"><path d="M36.857 75C16.501 75 0 58.497 0 38.14c0-10.008 3.99-19.085 10.463-25.726l.254-.26.002.003C4.246 18.8.256 27.876.256 37.884c0 20.357 16.502 36.86 36.858 36.86 10.008 0 19.085-3.99 25.726-10.464l.002.001-.258.255C55.942 71.011 46.865 75 36.857 75z" fill="#969A9D"/><path d="M37.115 74.743C16.76 74.743.258 58.242.258 37.884c0-10.008 3.99-19.085 10.463-25.726.084-.087.169-.173.254-.258l.002.001C4.504 18.543.514 27.62.514 37.628c0 20.357 16.502 36.86 36.858 36.86 10.008 0 19.085-3.99 25.726-10.465l.002.002-.259.255c-6.64 6.474-15.718 10.463-25.726 10.463z" fill="#96999C"/><path d="M37.377 74.487C17.021 74.487.52 57.985.52 37.628c0-10.008 3.989-19.085 10.462-25.727l.255-.258.002.002C4.765 18.286.776 27.364.776 37.372c0 20.356 16.502 36.858 36.857 36.858 10.008 0 19.085-3.989 25.727-10.463l.002.001c-.086.086-.172.17-.26.255-6.64 6.475-15.717 10.464-25.725 10.464z" fill="#96989A"/><path d="M37.623 74.23C17.267 74.23.766 57.728.766 37.372c0-10.008 3.99-19.086 10.463-25.727l.254-.259.002.003C5.012 18.03 1.022 27.107 1.022 37.115c0 20.356 16.502 36.86 36.857 36.86 10.009 0 19.086-3.99 25.727-10.464l.002.001-.258.255C56.707 70.24 47.63 74.23 37.623 74.23z" fill="#95979A"/><path d="M37.88 73.975c-20.355 0-36.857-16.503-36.857-36.86 0-10.008 3.99-19.085 10.463-25.726l.255-.258.002.001a37.09 37.09 0 00-4.198 5.162c0 .002-.002.004-.004.006l-.025.038-.007.01-.023.034-.009.014-.02.031-.012.017a.66.66 0 00-.032.048l-.015.023a.918.918 0 01-.03.044l-.019.03-.01.014a.994.994 0 00-.021.034l-.007.01-.026.039c0 .002-.001.002-.003.005l-.028.043A36.682 36.682 0 001.28 36.86c0 11.969 5.704 22.605 14.543 29.338a36.695 36.695 0 0022.315 7.52c4.054 0 7.957-.654 11.606-1.864l.051-.017.004-.001.046-.015.01-.004a.831.831 0 00.053-.018l.036-.012.02-.006a.437.437 0 01.03-.01l.023-.009a.427.427 0 00.026-.008l.03-.01.018-.007a.507.507 0 00.034-.012l.016-.005c.014-.004.026-.01.04-.013l.006-.003.047-.016a36.81 36.81 0 002.592-1.012l-.01.004a36.914 36.914 0 0011.048-7.425l.002.002-.259.255c-6.641 6.474-15.718 10.464-25.726 10.464z" fill="#939699"/><path d="M38.142 73.717zm11.717-1.901l.041-.014a.8.8 0 01-.041.014zm.054-.018l.036-.012-.036.012zm.109-.037l.025-.008-.025.008zm.108-.037l.016-.005-.016.005zm.109-.037l.004-.002c-.002 0-.003 0-.004.002zM7.258 16.734zm.057-.088l.007-.01a.154.154 0 01-.007.01zm.058-.087a.672.672 0 00.013-.02l-.013.02zm.03-.045l.014-.022a.714.714 0 01-.014.022zm.088-.132l.022-.034-.022.034zm.059-.088z" fill="#939599"/><mask id="mask0_801_4937" style="mask-type:luminance" maskUnits="userSpaceOnUse" x="1" y="0" width="74" height="74"><path d="M38.027 73.718a36.67 36.67 0 01-22.25-7.473c-8.812-6.69-14.5-17.258-14.5-29.15A36.356 36.356 0 017.233 17.1l.001-.002a3.183 3.183 0 01.031-.047l.026-.039a.999.999 0 01.029-.043l.009-.015.02-.029.012-.02a.888.888 0 00.046-.068.726.726 0 01.018-.026l.01-.017c.008-.01.014-.02.021-.031l.01-.014.022-.033.007-.01.025-.038.004-.006a36.82 36.82 0 017.592-8.203 36.772 36.772 0 007.205-4.481A36.726 36.726 0 0136.933.968c20.296 0 36.75 16.397 36.75 36.623 0 14.614-8.589 27.227-21.01 33.103-.844.366-1.706.701-2.581 1.005l-.004.001-.047.016-.006.003-.04.013-.015.005a.453.453 0 01-.034.012l-.02.007-.029.01-.025.008-.024.008a.52.52 0 00-.03.01l-.02.007-.035.012a.99.99 0 01-.054.018l-.01.003a1.995 1.995 0 00-.048.016l-.05.017h-.002a36.845 36.845 0 01-11.572 1.853zm36.155-30.025l.001-.004-.001.004zm.02-.109l.002-.015-.002.015zm.01-.051c0-.006 0-.011.002-.017a.152.152 0 00-.003.017zm.019-.113zm.009-.05c0-.01.003-.017.004-.025l-.004.025zm.01-.057l.006-.041-.007.041zm.017-.103c.335-1.988.51-4.031.51-6.114 0-9.889-3.934-18.863-10.326-25.452 6.392 6.589 10.326 15.563 10.326 25.451 0 2.084-.174 4.126-.51 6.115zM22.323 3.976l.004-.002a36.59 36.59 0 01-.004.002zm6.896-2.445l.018-.004-.018.004z" fill="#fff"/></mask><g mask="url(#mask0_801_4937)"><path d="M38.027 73.718a36.67 36.67 0 01-22.25-7.473c-8.812-6.69-14.5-17.258-14.5-29.15A36.356 36.356 0 017.233 17.1l.001-.002a3.183 3.183 0 01.031-.047l.026-.039a.999.999 0 01.029-.043l.009-.015.02-.029.012-.02a.888.888 0 00.046-.068.726.726 0 01.018-.026l.01-.017c.008-.01.014-.02.021-.031l.01-.014.022-.033.007-.01.025-.038.004-.006a36.816 36.816 0 017.592-8.203 36.772 36.772 0 007.205-4.481A36.726 36.726 0 0136.933.968c20.296 0 36.75 16.397 36.75 36.623 0 14.614-8.589 27.227-21.01 33.103-.844.366-1.706.701-2.581 1.005l-.004.001-.047.016-.006.003-.04.013-.015.005a.453.453 0 01-.034.012l-.02.007-.029.01-.025.008-.024.008a.52.52 0 00-.03.01l-.02.007-.035.012a.99.99 0 01-.054.018l-.01.003a1.995 1.995 0 00-.048.016l-.05.017h-.002a36.845 36.845 0 01-11.572 1.853zm36.155-30.025l.001-.004-.001.004zm.02-.109l.002-.015-.002.015zm.01-.051c0-.006 0-.011.002-.017a.152.152 0 00-.003.017zm.019-.113zm.009-.05c0-.01.003-.017.004-.025l-.004.025zm.01-.057l.006-.041-.007.041zm.017-.103c.335-1.988.51-4.031.51-6.114 0-9.889-3.934-18.863-10.326-25.452 6.392 6.589 10.326 15.563 10.326 25.451 0 2.084-.174 4.126-.51 6.115zM22.323 3.976l.004-.002a36.59 36.59 0 01-.004.002zM29.22 1.53l.018-.004-.018.004z" fill="url(#paint0_linear_801_4937)"/></g><path d="M75.004 36.86c0 15.139-9.127 28.147-22.18 33.82 12.464-5.913 21.082-18.61 21.082-33.322 0-20.356-16.501-36.86-36.857-36.86a36.726 36.726 0 00-14.674 3.039A36.694 36.694 0 0138.147 0c20.355 0 36.857 16.503 36.857 36.86z" fill="#fff"/><path d="M18 19v4.294l3.873 3.874c6.2 6.513 5.392 12.807 7.864 14.87a4.298 4.298 0 002.762.99 4.395 4.395 0 004.393-4.034 1.195 1.195 0 011.103-1.102 4.377 4.377 0 002.896-1.43c1.45-1.596 1.558-4.091.148-5.724-2.459-2.848-7.155-1.34-14.871-7.864L22.294 19H18zm25.45 14.166a5.866 5.866 0 01-1.507 4.246 5.795 5.795 0 01-3.654 1.877 5.813 5.813 0 01-6.13 5.147c.026.034.055.069.084.102 2.459 2.848 7.155 1.34 14.871 7.864l7.223 7.227h4.293v-4.295l-7.227-7.228c-6.2-6.515-5.391-12.803-7.863-14.869l-.09-.072z" fill="#202020"/><defs><linearGradient id="paint0_linear_801_4937" x1="-4.491" y1="90.889" x2="63.739" y2="10.965" gradientUnits="userSpaceOnUse"><stop stop-color="#fff"/><stop offset="1" stop-color="#EFEFEF"/></linearGradient></defs></svg>
